www/assets/icons/view_list.svg

<svg xmlns="http://www.w3.org/2000/svg" width="24" height="24" viewBox="0 0 24 24" fill='currentColor'><path d="M3 14h4v-4H3zm0 5h4v-4H3zM3 9h4V5H3zm5 5h13v-4H8zm0 5h13v-4H8zM8 5v4h13V5z"/></svg>

<svg width="24" height="24" viewBox="0 0 24 24" xmlns="http://www.w3.org/2000/svg" fill='currentColor'><path d="M3 14H7V10H3V14ZM3 19H7V15H3V19ZM3 9H7V5H3V9ZM8 14H21V10H8V14ZM8 19H21V15H8V19ZM8 5V9H21V5H8Z"/></svg>
